build/system/ChevronLeftSolid.svg

<svg xmlns="http://www.w3.org/2000/svg" fill="none" viewBox="0 0 24 24" focusable="false"><path d="M0 0H24V24H0z"/><path fill="#74767B" fill-rule="evenodd" d="M3 12C3 16.9706 7.02944 21 12 21C16.9706 21 21 16.9706 21 12C21 7.02944 16.9706 3 12 3C7.02944 3 3 7.02944 3 12ZM14.1863 7.60592C14.0563 7.46592 13.8863 7.39592 13.7063 7.39592C13.5463 7.39592 13.3963 7.44592 13.2663 7.56592L9.22631 11.4896C8.91631 11.7696 8.91631 12.2496 9.22631 12.5296L13.2863 16.4359C13.5563 16.6759 13.9663 16.6559 14.2063 16.3959C14.4463 16.1259 14.4363 15.7159 14.1663 15.4759L10.5927 12.0024L14.1463 8.52592C14.4063 8.28592 14.4263 7.87592 14.1863 7.60592Z"/></svg>

<svg xmlns="http://www.w3.org/2000/svg" fill="none" viewBox="0 0 24 24" focusable="false"><path fill="#74767B" fill-rule="evenodd" d="M3 12c0 4.97 4.02 9 9 9a9 9 0 0 0 9-9c0-4.98-4.03-9-9-9-4.98 0-9 4.02-9 9m11.18-4.4a.65.65 0 0 0-.48-.21c-.16 0-.31.05-.44.17l-4.04 3.92c-.31.28-.31.76 0 1.04l4.06 3.91c.27.24.68.22.92-.04a.65.65 0 0 0-.04-.92L10.59 12l3.55-3.48c.26-.24.28-.65.04-.92"/></svg>
